X: 1
T: Battle of Waterloo
T: Bonaparte's March
%date: 1913
B: Frank Roche: "Collection of Traditional Irish Music" vol.2 1913
R: March
O: Source: Hamish Moore's School of Piping
Z: 2014 John Chambers <jc:trillian.mit.edu>
N: Chords by John Chambers
M: 4/4
L: 1/8
K: Amix
"A"A2AB AGGA | "A"c<dec "D"d2ef/g/ | "A"a>ged e>dBA | "G"G>GGA G2 ed/B/ |
"A"A2AB AGGA | "A"c<dec "D"d2ef/g/ | "A"a>ged "G"e>dBG | "A"A2AB A2 ef/g/ |]
"A"a>ged c>def | "A"g>age "G"gef/g/ | "A"a>ged e>dBA | "G"G>GGA G2 ed/B/ |
"A"A2AB  AGGA  | "A"c<dec "D"d2ef/g/ | "A"a>ged "G"e>dBG | "A"A2AB HA2 ef/g/ |]
